X:211
T:l'Air mignonne
C:Simon Riopel
Z:robin.beech@mcgill.ca
M:4/4
L:1/8
K:A
c3e cBAB | c3e cBAc | F3A EEAc | BAGB AEAB |
c3e cBAB | c3e cBAc | F3A EEAc | BAGB AAce ::
f3a fece | f3a fecA | F3A EEAc | BAGB AAce |
f3a fece | f3a fecA | F3A EEAc | BAGB AEAB :|

